X:2926
T:Vals
C:anon.
O:Norway
A:Kirkesdal, M\aalselv
R:Vals, Waltz
Z:Transcribed by Frank Nordberg - http://www.musicaviva.com
F:http://abc.musicaviva.com/tunes/norway/vals-maalselv/vals-maalselv-1.abc
M:3/4
L:1/4
K:G
D|G>GG|GDG|B>BB|BGB/d/|
g2g|f2f|e>e g/e/|d2B|
G>GG|GDG|B>BB|BGB/d/|
d2c|B2A|G>F G/A/|G3||
dBG|d>dd|cBA|c>cc|
F/F/FF|E/E/EE|Ddc|B2G|
dBG|d>dd|cBA|c>cc|
F/F/FA|cBA|G>GG|G2z|]
W:
W:
W:  From Musica Viva - http://www.musicaviva.com
W:  the Internet center for free sheet music downloads.

